symbols/web/room_preferences/materialsymbolsrounded/room_preferences_wght100fill1_20px.svg

<svg xmlns="http://www.w3.org/2000/svg" height="20" width="20"><path d="M14.667 16.792q-.146 0-.24-.104-.094-.105-.115-.25l-.02-.271q-.521-.084-.834-.292-.312-.208-.604-.521l-.312.104q-.125.063-.261.042-.135-.021-.219-.146l.042.042q-.083-.125-.062-.292.02-.166.146-.25l.27-.187q-.166-.459-.166-.875 0-.417.166-.854l-.27-.188q-.126-.083-.146-.25-.021-.167.062-.292l-.042.021q.084-.125.219-.146.136-.021.261.042l.312.104q.292-.312.604-.5.313-.187.834-.291l.02-.271q.021-.146.126-.25.104-.105.229-.105.145 0 .239.094t.115.261l.021.271q.52.104.823.302.302.198.593.51l.334-.104q.125-.063.26-.042.136.021.219.146l-.042-.021q.083.125.063.292-.021.167-.146.25l-.271.187q.167.417.167.865t-.167.865l.271.187q.125.083.146.25.02.167-.063.292l.042-.042q-.083.125-.229.146-.146.021-.271-.042l-.313-.125q-.291.313-.593.521-.303.208-.823.292l-.021.271q-.021.145-.125.25-.104.104-.229.104Zm0-1.209q.729 0 1.25-.521.521-.52.521-1.25 0-.729-.521-1.25-.521-.52-1.25-.52t-1.25.52q-.521.521-.521 1.25 0 .73.521 1.25.521.521 1.25.521Zm-4.959-4.979q.23 0 .417-.187.187-.188.187-.417 0-.229-.187-.417-.187-.187-.417-.187-.229 0-.416.187-.188.188-.188.417 0 .229.188.417.187.187.416.187Zm-5.25 5.813q-.125 0-.229-.105-.104-.104-.104-.229t.104-.229q.104-.104.229-.104H5.75V4.25q0-.271.198-.469.198-.198.469-.198h4.875q.25 0 .458.167.208.167.208.438v.208h1.625q.271 0 .469.198.198.198.198.468v4h-.667v-4h-1.625v4.855q-.333.229-.343.25-.011.021-.323.271-.73.645-1.063 1.583-.333.937-.333 1.791 0 .5.104.969t.312.969q.105.229.167.344.063.114.167.323Z"/></svg>

<svg xmlns="http://www.w3.org/2000/svg" height="20" width="20"><path d="M14.667 16.792Q14.521 16.792 14.427 16.688Q14.333 16.583 14.312 16.438L14.292 16.167Q13.771 16.083 13.458 15.875Q13.146 15.667 12.854 15.354L12.542 15.458Q12.417 15.521 12.281 15.5Q12.146 15.479 12.062 15.354L12.104 15.396Q12.021 15.271 12.042 15.104Q12.062 14.938 12.188 14.854L12.458 14.667Q12.292 14.208 12.292 13.792Q12.292 13.375 12.458 12.938L12.188 12.75Q12.062 12.667 12.042 12.5Q12.021 12.333 12.104 12.208L12.062 12.229Q12.146 12.104 12.281 12.083Q12.417 12.062 12.542 12.125L12.854 12.229Q13.146 11.917 13.458 11.729Q13.771 11.542 14.292 11.438L14.312 11.167Q14.333 11.021 14.438 10.917Q14.542 10.812 14.667 10.812Q14.812 10.812 14.906 10.906Q15 11 15.021 11.167L15.042 11.438Q15.562 11.542 15.865 11.74Q16.167 11.938 16.458 12.25L16.792 12.146Q16.917 12.083 17.052 12.104Q17.188 12.125 17.271 12.25L17.229 12.229Q17.312 12.354 17.292 12.521Q17.271 12.688 17.146 12.771L16.875 12.958Q17.042 13.375 17.042 13.823Q17.042 14.271 16.875 14.688L17.146 14.875Q17.271 14.958 17.292 15.125Q17.312 15.292 17.229 15.417L17.271 15.375Q17.188 15.5 17.042 15.521Q16.896 15.542 16.771 15.479L16.458 15.354Q16.167 15.667 15.865 15.875Q15.562 16.083 15.042 16.167L15.021 16.438Q15 16.583 14.896 16.688Q14.792 16.792 14.667 16.792ZM14.667 15.583Q15.396 15.583 15.917 15.062Q16.438 14.542 16.438 13.812Q16.438 13.083 15.917 12.562Q15.396 12.042 14.667 12.042Q13.938 12.042 13.417 12.562Q12.896 13.083 12.896 13.812Q12.896 14.542 13.417 15.062Q13.938 15.583 14.667 15.583ZM9.708 10.604Q9.938 10.604 10.125 10.417Q10.312 10.229 10.312 10Q10.312 9.771 10.125 9.583Q9.938 9.396 9.708 9.396Q9.479 9.396 9.292 9.583Q9.104 9.771 9.104 10Q9.104 10.229 9.292 10.417Q9.479 10.604 9.708 10.604ZM4.458 16.417Q4.333 16.417 4.229 16.312Q4.125 16.208 4.125 16.083Q4.125 15.958 4.229 15.854Q4.333 15.75 4.458 15.75H5.75V4.25Q5.75 3.979 5.948 3.781Q6.146 3.583 6.417 3.583H11.292Q11.542 3.583 11.75 3.75Q11.958 3.917 11.958 4.188V4.396H13.583Q13.854 4.396 14.052 4.594Q14.25 4.792 14.25 5.062V9.062H13.583V5.062H11.958V9.917Q11.625 10.146 11.615 10.167Q11.604 10.188 11.292 10.438Q10.562 11.083 10.229 12.021Q9.896 12.958 9.896 13.812Q9.896 14.312 10 14.781Q10.104 15.25 10.312 15.75Q10.417 15.979 10.479 16.094Q10.542 16.208 10.646 16.417Z"/></svg>
